X: 15842
T: Gortavale Rock
R: reel
M: 4/4
K: Eminor
e2 de ceBc|ABGA =FAEF|decd Bc A2-|ABcA BcBA|
|:DEEE GEAE|ABAB dB e2-|egfd edBA|AB B/B/B AGED|
DE E/E/E GEAE|ABAB dB e2-|egfd edBA|1 B^c d/c/B edBA:|2 B^c d/c/B edBG||
|:A3 A BAGA|E/F/G AB cdeg|ac'bg a2 eg|fd e2 BcBG|
A3 A BAGA|E/F/G AB cdeg|ac'bg a2 eg|1 fd e2 BcBG:|2 fd e2 e2 f2||
fg g/g/g dGGd|GGdG GedB|FG G/G/G GGdG|GdGG e2 d2|
dGGd GGdG|GdGG dG G/G/G|de e/e/e edBA|GEDG EDEF|
FG G/G/G eGGG|dGGG Bccc|BGGG eGGd|GG G/G/G GGBc|
BGGG eGGd|GGdG GdGG|e2 de ceBc|ABGA =FAEF|decd Bc A2-|ABcA BcBA||

